packages/sources/icons/src/vitamix/apple-line.svg

<svg width="16" height="16" viewBox="0 0 16 16" fill="none" xmlns="http://www.w3.org/2000/svg">
<path fill-rule="evenodd" clip-rule="evenodd" d="M7.63739 3.97468C8.46139 4.03868 9.30939 3.55068 9.82939 2.92668C10.3494 2.30268 10.6934 1.43068 10.5974 0.566681C9.85339 0.598681 8.95739 1.06268 8.42139 1.68668C7.94139 2.23868 7.52539 3.12668 7.63739 3.97468ZM10.5893 4.14267C11.0613 4.17467 12.4133 4.31867 13.2933 5.60667C13.2213 5.64668 11.6773 6.54268 11.6933 8.41468C11.7173 10.6547 13.6533 11.3987 13.6773 11.4067C13.6613 11.4627 13.3653 12.4707 12.6533 13.5107C12.0373 14.4147 11.3973 15.3107 10.3893 15.3267C9.90249 15.3385 9.57751 15.198 9.23944 15.0519C8.88864 14.9004 8.52375 14.7427 7.94931 14.7427C7.33892 14.7427 6.95487 14.9067 6.58496 15.0646C6.26643 15.2006 5.95838 15.3322 5.52531 15.3507C4.54931 15.3827 3.81331 14.3747 3.18931 13.4787C1.91731 11.6387 0.949313 8.29467 2.25331 6.03067C2.90131 4.90267 4.05331 4.19067 5.30931 4.17467C5.85038 4.16103 6.37595 4.36963 6.83607 4.55226C7.18552 4.69096 7.49723 4.81467 7.74931 4.81467C7.97077 4.81467 8.25964 4.70115 8.60137 4.56684C9.14844 4.35184 9.83099 4.08358 10.5893 4.14267ZM10.4859 5.47202C10.1706 5.44735 9.8319 5.52269 9.31324 5.72069C9.35724 5.70402 8.81857 5.91402 8.6679 5.96735C8.33324 6.08402 8.0579 6.14802 7.74924 6.14802C7.4439 6.14802 7.16257 6.08669 6.83857 5.97802C6.73524 5.94269 6.63124 5.90469 6.5019 5.85402C6.47968 5.84535 6.43345 5.82698 6.38344 5.80712L6.38334 5.80708C6.31034 5.77809 6.22934 5.74591 6.20324 5.73602C5.77124 5.56669 5.5279 5.50269 5.3259 5.50802C4.5579 5.51802 3.83057 5.96135 3.40857 6.69602C2.54724 8.19202 3.0239 10.8954 4.28324 12.7167C4.9539 13.6794 5.32057 14.0234 5.46857 14.0187C5.61657 14.012 5.72524 13.9807 5.99057 13.8687L6.1019 13.8214C6.7719 13.5354 7.2419 13.4094 7.94924 13.4094C8.6299 13.4094 9.08457 13.5334 9.7279 13.8107L9.8399 13.8587C10.1052 13.972 10.2012 13.9974 10.3679 13.9934C10.6066 13.99 10.9006 13.7154 11.5532 12.7574C11.7319 12.4967 11.8899 12.222 12.0266 11.944C11.9367 11.87 11.8496 11.7929 11.7652 11.7127C10.9059 10.894 10.3746 9.79002 10.3599 8.42602C10.3455 7.4168 10.6773 6.4331 11.2999 5.63869C11.0386 5.54222 10.7641 5.48602 10.4859 5.47202Z" fill="#001018"/>
</svg>

<svg width="16" height="16" fill="none" xmlns="http://www.w3.org/2000/svg"><path fill-rule="evenodd" clip-rule="evenodd" d="M7.637 3.975c.824.064 1.672-.424 2.192-1.048.52-.624.864-1.496.768-2.36-.744.032-1.64.496-2.176 1.12-.48.552-.896 1.44-.784 2.288zm2.952.168c.472.032 1.824.176 2.704 1.464-.072.04-1.616.936-1.6 2.808.024 2.24 1.96 2.984 1.984 2.992a8.04 8.04 0 0 1-1.024 2.104c-.616.904-1.256 1.8-2.264 1.816-.487.011-.811-.129-1.15-.275-.35-.152-.715-.31-1.29-.31-.61 0-.994.165-1.364.323-.319.136-.627.267-1.06.286-.976.032-1.712-.976-2.336-1.872-1.272-1.84-2.24-5.184-.936-7.448.648-1.128 1.8-1.84 3.056-1.856.541-.014 1.067.195 1.527.377.35.139.661.263.913.263.222 0 .51-.114.852-.248.547-.215 1.23-.483 1.988-.424zm-.103 1.329c-.315-.025-.654.05-1.173.249.044-.017-.494.193-.645.246-.335.117-.61.181-.919.181-.305 0-.586-.061-.91-.17a7.909 7.909 0 0 1-.337-.124l-.119-.047-.18-.071c-.432-.17-.675-.233-.877-.228-.768.01-1.495.453-1.917 1.188-.862 1.496-.385 4.2.874 6.02.67.963 1.038 1.307 1.186 1.303.148-.007.256-.038.522-.15l.11-.048c.67-.286 1.14-.412 1.848-.412.68 0 1.136.124 1.779.402l.112.048c.265.113.361.138.528.134.239-.003.533-.278 1.185-1.236.179-.26.337-.535.474-.813a4.901 4.901 0 0 1-.262-.231c-.86-.819-1.39-1.923-1.405-3.287a4.417 4.417 0 0 1 .94-2.787 2.75 2.75 0 0 0-.814-.167z" fill="#001018"/></svg>
